source/img/sprite/training-process-img2.svg

<svg width="25" height="21" viewBox="0 0 25 21" fill="none" xmlns="http://www.w3.org/2000/svg">
<path d="M24.6441 14.2662C25.4208 11.8339 24.7817 9.07304 24.1026 7.15999C24.0981 7.08598 24.0753 7.01424 24.036 6.95138C23.8052 6.32997 23.5921 5.81953 23.4101 5.45112C23.7451 5.31774 23.9661 4.99494 23.9694 4.63442V0.937042C23.9694 0.446741 23.572 0.0493171 23.0817 0.0493171H12.176C11.9309 0.0488733 11.7318 0.247224 11.7313 0.492403C11.7313 0.501558 11.7316 0.510712 11.7321 0.519811C11.883 3.18299 11.6877 4.98951 11.124 6.26339C11.1128 6.27604 11.1024 6.28941 11.093 6.30334C11.0913 6.32548 11.0913 6.34778 11.093 6.36992C10.8778 6.83364 10.5868 7.25814 10.2319 7.62605L10.1919 7.65268C10.1919 7.65268 10.1919 7.65268 10.1919 7.68375C9.67154 8.18005 9.07139 8.58518 8.41647 8.88218C7.27541 9.38846 6.10439 9.82428 4.90995 10.1871L4.68358 10.2626C0.533467 11.6386 -0.00804501 14.1331 0.000832242 15.3848C-0.000277414 15.4025 -0.000277414 15.4203 0.000832242 15.438V18.6072C0.00149804 18.7614 0.0821146 18.9043 0.213886 18.9845C1.231 19.6033 2.32889 20.0783 3.47628 20.396C3.71224 20.4623 3.95737 20.3248 4.02373 20.0888C4.03621 20.0444 4.0417 19.9982 4.03998 19.9521V19.85H4.69246V20.2939C4.68963 20.5138 4.84825 20.7026 5.0653 20.7377C5.45146 20.7999 5.83762 20.8487 6.21491 20.8798C6.33852 20.8902 6.46086 20.8483 6.55224 20.7644C6.64357 20.6797 6.69511 20.5605 6.69428 20.4359V19.8767H7.34676V20.5069C7.34676 20.7521 7.5455 20.9508 7.79062 20.9508C8.16346 20.9508 8.53631 20.9508 8.93578 20.8975C9.16698 20.879 9.34486 20.6856 9.34414 20.4537V19.8767H9.99662V20.2673C9.99345 20.5124 10.1896 20.7137 10.4347 20.7168C10.4604 20.7172 10.4861 20.7153 10.5115 20.7111C11.3263 20.5863 12.1294 20.3949 12.9128 20.1385L12.9838 20.1075C16.0908 18.332 18.0616 19.7923 18.1415 19.8545C18.2189 19.9146 18.3142 19.9473 18.4123 19.9477H18.9626C19.2078 19.9477 19.4065 19.7489 19.4065 19.5038V18.7537H20.0412V19.4949C20.0412 19.7401 20.24 19.9388 20.4851 19.9388H21.9143C22.1594 19.9388 22.3582 19.7401 22.3582 19.4949V18.7537H23.0151V19.4949C23.0151 19.7401 23.2138 19.9388 23.459 19.9388H24.5553C24.8004 19.9388 24.9992 19.7401 24.9992 19.4949V14.7101C25.0035 14.4958 24.8541 14.3091 24.6441 14.2662ZM14.1112 0.945919H14.4752H23.0595V4.6211H14.1112V0.945919ZM8.53187 9.79654L8.53631 9.82317C8.90016 10.1186 9.23595 10.447 9.53944 10.8041C9.45893 10.938 9.41743 11.0917 9.41959 11.248C9.41654 11.7162 9.79366 12.0982 10.2618 12.1012C10.73 12.1043 11.112 11.7272 11.1151 11.259C11.118 10.8179 10.7821 10.4483 10.3428 10.4091C10.0621 10.0263 9.74223 9.6737 9.38852 9.35711C9.78517 9.13135 10.1583 8.8667 10.5026 8.56704C10.9331 8.9709 11.3336 9.40555 11.701 9.86756C11.5466 10.3096 11.7798 10.7931 12.2218 10.9475C12.6638 11.1019 13.1473 10.8688 13.3017 10.4268C13.4561 9.98479 13.223 9.50131 12.781 9.34685C12.6893 9.31478 12.5928 9.29875 12.4956 9.29941H12.389C11.9997 8.80928 11.5755 8.34794 11.1196 7.919C11.3311 7.65851 11.5183 7.37921 11.6789 7.08454C12.366 7.44223 13.0301 7.84249 13.6674 8.28297C13.663 8.75607 14.043 9.14312 14.5161 9.1475C14.9892 9.15188 15.3762 8.77188 15.3806 8.29878C15.385 7.82568 15.005 7.43863 14.5319 7.43425C14.3968 7.43297 14.2632 7.46371 14.1423 7.52396C13.4716 7.06989 12.7734 6.65782 12.0517 6.29002C12.5355 5.00282 12.7441 3.29395 12.6465 0.963674H13.2279V4.63885C13.2279 5.12916 13.6254 5.52658 14.1157 5.52658H22.4336C22.549 5.76183 22.7443 6.17018 22.9574 6.70282H22.7754C20.079 6.72229 17.9089 8.92396 17.9283 11.6204C17.9394 13.1527 18.6691 14.5909 19.8992 15.5046C16.3083 16.45 10.9065 17.573 6.36138 17.2801C7.20028 13.9289 6.19715 11.8649 5.54467 10.9595C6.56073 10.6262 7.55792 10.238 8.53187 9.79654ZM4.65251 11.2125C5.13188 11.7762 6.38358 13.6715 5.46478 17.1558C3.86543 17.0301 2.31208 16.5607 0.91075 15.7798C0.894827 15.6784 0.884452 15.5761 0.87968 15.4735V15.4425C0.844171 14.497 1.19926 12.4508 4.65251 11.2125ZM23.9028 19.0511V18.3098C23.9028 18.0647 23.7041 17.866 23.459 17.866H21.9188C21.6736 17.866 21.4749 18.0647 21.4749 18.3098V19.0511H20.9289V18.3098C20.9289 18.0647 20.7302 17.866 20.4851 17.866H18.9538C18.7086 17.866 18.5099 18.0647 18.5099 18.3098V19.0333C17.9062 18.656 15.7002 17.5597 12.571 19.3085C12.0143 19.4923 11.4465 19.6405 10.871 19.7524V19.4461C10.871 19.201 10.6723 19.0022 10.4272 19.0022H8.89584C8.65071 19.0022 8.45197 19.201 8.45197 19.4461V20.0542H8.22561V19.4328C8.22561 19.1877 8.02687 18.9889 7.78174 18.9889H6.24154C5.99642 18.9889 5.79768 19.1877 5.79768 19.4328V19.961L5.57131 19.9299V19.4328C5.57131 19.1877 5.37257 18.9889 5.12744 18.9889H3.58724C3.36148 18.9873 3.17045 19.1554 3.14338 19.3795C2.35558 19.1201 1.59696 18.7795 0.87968 18.3631V16.7741C2.81492 17.7994 5.31831 18.1855 7.98148 18.1855C15.0566 18.1855 23.1527 15.478 24.107 15.154L24.1114 19.0511H23.9028ZM23.6853 14.3683C23.3081 14.4926 22.3804 14.8122 21.0976 15.154C19.1117 14.1928 18.281 11.8038 19.2421 9.8179C19.8996 8.45946 21.2665 7.58749 22.7754 7.56391C22.9504 7.56147 23.1253 7.57034 23.2992 7.59054L23.3036 7.60386C23.9561 9.48583 24.542 12.1712 23.6853 14.3683Z" fill="#2D383F"/>
</svg>

<svg xmlns="http://www.w3.org/2000/svg" width="25" height="21" fill="none"><path fill="#2D383F" d="M24.6 14.3A11.6 11.6 0 0 0 24 7l-.6-1.5c.3-.2.6-.5.6-.9V1c0-.5-.4-.9-1-.9H12.3a.4.4 0 0 0-.5.5 12.8 12.8 0 0 1-.6 5.9c-.2.4-.5.9-.9 1.2-.5.6-1.1 1-1.8 1.3-1.1.5-2.3 1-3.5 1.3h-.2C.5 11.7 0 14.3 0 15.5v3.2c0 .2 0 .3.2.4 1 .6 2.1 1 3.3 1.4A.4.4 0 0 0 4 20v-.1h.7v.4c0 .2.1.4.4.4l1.1.2a.4.4 0 0 0 .5-.5V20h.6v.6c0 .3.2.5.5.5l1.1-.1c.3 0 .4-.2.4-.4v-.6h.7v.4a.4.4 0 0 0 .5.4 15 15 0 0 0 2.4-.6c3.2-1.8 5.2-.3 5.2-.2H19c.2 0 .4-.2.4-.4v-.7h.6v.7c0 .2.2.4.5.4h1.4c.3 0 .5-.2.5-.4v-.7h.6v.7c0 .2.2.4.5.4h1c.3 0 .5-.2.5-.4v-4.8c0-.2-.1-.4-.4-.4ZM14.1.9h9v3.7h-9V1ZM8.5 9.8l1 1v.4a.8.8 0 1 0 .8-.8c-.2-.4-.6-.7-1-1l1.2-.8 1.2 1.3a.8.8 0 1 0 .8-.6h-.1L11 7.9l.6-.8c.7.3 1.3.7 2 1.2a.9.9 0 1 0 .4-.8l-2-1.2c.4-1.3.6-3 .5-5.3h.6v3.6c0 .5.4 1 1 1h8.2l.6 1.1h-.2a4.9 4.9 0 0 0-2.9 8.8c-3.6 1-9 2-13.5 1.8.8-3.4-.2-5.4-.9-6.3l3-1.2Zm-3.8 1.4c.4.6 1.7 2.5.8 6-1.6-.2-3.2-.6-4.6-1.4v-.3c0-1 .3-3 3.8-4.3Zm19.2 7.9v-.8c0-.2-.2-.4-.4-.4h-1.6c-.2 0-.4.2-.4.4v.8h-.6v-.8c0-.2-.2-.4-.4-.4H19c-.3 0-.5.2-.5.4v.7c-.6-.3-2.8-1.4-6 .3l-1.6.5v-.4c0-.2-.2-.4-.5-.4H9c-.2 0-.4.2-.4.4v.7h-.3v-.7c0-.2-.2-.4-.4-.4H6.2c-.2 0-.4.2-.4.4v.6h-.2v-.6c0-.2-.2-.4-.5-.4H3.6c-.2 0-.4.2-.5.4a12 12 0 0 1-2.2-1v-1.6c2 1 4.4 1.4 7 1.4 7.2 0 15.3-2.7 16.2-3V19H24Zm-.2-4.7c-.4 0-1.3.4-2.6.8a4 4 0 0 1 2.2-7.6c.7 1.9 1.2 4.6.4 6.8Z"/></svg>
